images/warning.svg

<svg height="16" viewBox="0 0 16 16" width="16" xmlns="http://www.w3.org/2000/svg"><path d="m13.917 8.5c0-3.59-2.668-6.5-5.959-6.5-3.29 0-5.958 2.91-5.958 6.5s2.668 6.5 5.958 6.5c3.291 0 5.959-2.91 5.959-6.5z" fill="#ffc500"/><g fill="#646465"><path d="m9 11c0-.552-.448-1-1-1s-1 .448-1 1 .448 1 1 1 1-.448 1-1z"/><path d="m7 9h2v-5h-2z"/></g></svg>

<?xml version="1.0" encoding="UTF-8"?>
<svg width="16px" height="16px" viewBox="0 0 16 16" xmlns="http://www.w3.org/2000/svg" xmlns:xlink="http://www.w3.org/1999/xlink" version="1.1">
 <!-- Generated by Pixelmator Pro 1.2.4 -->
 <path id="path" d="M13.917 8.5 C13.917 4.91 11.249 2 7.958 2 4.668 2 2 4.91 2 8.5 2 12.09 4.668 15 7.958 15 11.249 15 13.917 12.09 13.917 8.5 Z" fill="#ffc500" fill-opacity="1" stroke="none"/>
 <defs>
  <path id="path-1" d="M9 11 C9 10.448 8.552 10 8 10 7.448 10 7 10.448 7 11 7 11.552 7.448 12 8 12 8.552 12 9 11.552 9 11 Z"/>
 </defs>
 <use id="ellipse" xlink:href="#path-1" fill="#646465" fill-opacity="1" stroke="none"/>
 <defs>
  <linearGradient id="linear-gradient" gradientUnits="userSpaceOnUse" x1="8.015" y1="9.949" x2="8.015" y2="12.018">
   <stop offset="0" stop-color="#fdbe2e" stop-opacity="1"/>
   <stop offset="1" stop-color="#ffcb02" stop-opacity="0"/>
  </linearGradient>
 </defs>
 <defs>
  <path id="stroke-path" d=""/>
 </defs>
 <use id="ellipse-1" stroke="url(#linear-gradient)" stroke-opacity="1" stroke-linecap="round" fill="none" stroke-width="12" xlink:href="#stroke-path"/>
 <defs>
  <path id="stroke-path-1" d=""/>
 </defs>
 <use id="ellipse-2" stroke="#646465" stroke-opacity="1" stroke-linecap="round" fill="none" stroke-width="6" xlink:href="#stroke-path-1"/>
 <path id="path-2" d="M7 9 L9 9 9 4 7 4 Z" fill="#646465" fill-opacity="1" stroke="none"/>
</svg>
